X:1
T:Wide, Wide as the Ocean
T:Charles Austin Miles, 1914
T:Wide, Wide as the Ocean
T:Public Domain
C:Charles Austin Miles, 1914
Z:Public Domain
%%score 1 ( 2 3 )
L:1/8
M:6/8
K:C
V:1 treble 
V:2 bass 
V:3 bass 
V:1
"^C" [Ec]3 [Ec][GB][FA] |"^C" [EG]3 [CE]3 | [CE][CE][CE] [CE][B,F][CG] |"^F" [FA]6 | %4
w: Wide, wide as the|o- cean,|high as the heav- en a-|bove;|
"^G" [FB]3 [FB][FA][FB] |"^C" [Ec]2 [EG] [EG]2 [EA] |"^G" [DB]3"^D" [DB]2 [DA] |"^G" [DG]6 | %8
w: Deep, deep as the|deep- est sea is|my Sav- ior’s|love.|
"^C" [Ec]3 [Ec][GB][FA] |"^C" [EG]3 [CE]3 | [CE][CE][CE] [CE][B,F][CG] |"^F" [CA]6 | %12
w: I, though so un-|wor- thy,|still am a child of His|care;|
"^F" [FA][F^G][FA] [Fc][FB][FA] |"^C" [EG][^D^F][EG] [=FA][FB][Ec] |"^F" [Fd]3"^G" [DB]3 | %15
w: For His Word teach- es me|that His love reach- es me|ev- ’ry-|
"^C" [Ec]6 |] %16
w: where.|
V:2
 [C,G,]3 [C,G,][C,C][C,C] | [C,C]3 [C,G,]3 | [C,G,][C,G,][C,G,] [C,G,][D,G,][E,G,] | F,6 | %4
 [G,D]3 [G,D][G,C][G,D] | [C,G,]2 [C,C] [C,C]2 [C,A,] | [D,G,]3 [D,^F,]2 [D,C] | [G,,B,]6 | %8
 [C,G,]3 [C,G,][C,C][C,C] | [C,C]3 [C,G,]3 | [C,G,][C,G,][C,G,] [C,G,][D,G,][E,G,] | F,6 | %12
 [F,C][F,B,][F,C] [F,A,][F,B,][F,C] | [C,C][C,C][C,C] [F,C][G,C][A,C] | [F,A,]3 G,3 | [C,G,]6 |] %16
V:3
 x6 | x6 | x6 | F,6 | x6 | x6 | x6 | x6 | x6 | x6 | x6 | F,6 | x6 | x6 | x3 G,3 | x6 |] %16

